X:1
T:Scherzavan gl'augelletti
T:Adriano Banchieri Bolognese
T:Source : Canzonette a tre voci di A.Banchieri---Venetia---R.Amadino---1597. Editor : André Vierendeels (07/03/17).
T:Notes : Original clefs : C1, C1, C4 Editorial accidentals above the staff Square bracket indicates ligature Sub-heading : "Madrigaletto sopra la morte del Cardillo"
T:Scherzavan gl'augelletti
T:©
T:©
T:©
T:©
T:©
T:©
T:©
C:Adriano Banchieri Bolognese
Z:©
%%score [ 1 2 3 ]
L:1/8
Q:1/4=120
M:4/4
K:F
V:1 treble nm="Soprano 1" snm="S 1"
V:2 treble nm="Soprano 2" snm="S 2"
V:3 treble-8 nm="Tenor" snm="T"
V:1
 z8 | z2 c2 B2 A2 | G2 F2 G2 A2 | z2 F2 G2 A2 | B2 c2 B2 Ac | d2 c2 =B2 c2 | =B2 c4 B2 | c4 c2 c2 | %8
w: |Scher- za- van|gl'au- gel- let- ti,|fra'i ra- mi|vez- zo- set- ti, fra'i|ra- mi vez- zo-|set- * *|ti, e can-|
 A2 GF E2 C2 | z4 c2 c2 | A2 GF E2 C2 | z4 c2 c2 | A2 GF E2 C2 | F6 E2 | D4 E4 | ^C4 D4- | %16
w: ta- va- no'a- ga- ra,|e can-|ta- va- no'a- ga- ra,|e can-|ta- va- no'a- ga- ra,|dol- *|* ce-|men- *|
 D2 ^C=B, C4 | D4 B4- | B4 A4 | ^c8 | d8 | ^c8 | z2 A4 A2 | c4 G2 F2 | G4 A2 G2- | G2 G2 G4 | %26
w: |te, dol-|* ce-|men-||te,|ahi che|piu non si|sen- te, ahi|_ che piu|
 G2 c2 =B4 | c2 G2 A2 G2 | A2 G2 z2 E2 | F2 E2 F2 E2 | F3 F GD F2- | F2 E2 F4 | z2 G3 G G2 | %33
w: non si sen-|te, dop- po la|pre- da, dop-|po la pre- da|del- la bel- va- ri-|* * a,|l'a- ria gio-|
 A4 z2 F2 | A2 c2 FGAB | c3 B A2 c2 | c2 c2 d2 d2- | d2 d2 d4 | c4 =B4 | c6 BA | G8 | A4 z2 E2- | %42
w: ir, l'a-|ria gio- ir, _ _ _|_ _ _ l'a-|ria gio- ir di|_ ce- le-|ste'ar- mo-|ni- * *||a, ahi|
 E2 D2 E4 | E2 G2 F4 | G2 E2 F2 E2 | F2 E2 z2 G2 | A2 G2 A2 G2 | A3 A B2 A2 | G4 F4 | z2 E3 E E2 | %50
w: _ che piu|non si sen-|te, dop- po la|pre- da, dop-|po la pre- da|del- la bel- va-|ri- a,|l'a- ria gio-|
 F2 F2 A2 c2 | FGAB c3 B | A4 z2 A2 | A2 A2 B2 B2- | B2 B2 B4 | G6 F2 | E4 F4- | F2 ED E4 | F8 |] %59
w: ir, l'a- ria gio-|ir, _ _ _ _ _|_ l'a-|ria gio- ir di|_ ce- le-|ste'ar- mo-|ni- *||a.|
V:2
 z4 z2 c2 | B2 A2 G2 F2 | G2 A2 z2 F2 | G2 A2 B2 c2 | B2 Ac d2 c2 | z4 G2 A2 | G8 | E8 | z4 c2 c2 | %9
w: Scher-|za- van gl'au- gel-|let- ti, fra'i|ra- mi vez- zo-|set- ti, fra'i ra- mi|vez- zo-|set-|ti,|e can-|
 A2 GF E2 C2 | z4 c2 c2 | A2 GF E2 C2 | z4 c2 c2 | d2 cB A4 | G4 G4- | G4 F4 | E8 | ^F4 G4- | %18
w: ta- va- no'a- ga- ra,|e can-|ta- va- no'a- ga- ra,|e can-|ta- va- no'a- ga-|ra, dol-|* ce-|men-|te, dol-|
"^-natural" G4 F4 | E4 A4- |"^#""^#""^#" A2 GF G4 | A2 A4 A2 | E2 F4 F2 | E2 E3 C F2- | %24
w: * ce-|men- *||te, ahi che|piu, ahi che|piu non si sen-|
 F2 E2 F2 E2- | E2 D2 E4 | E2 G2 F4 | G2 E2 F2 E2 | F2 E2 z2 G2 | A2 G2 A2 G2 | A3 A B2 A2 | %31
w: * * te, ahi|_ che piu|non si sen-|te, dop- po la|pre- da, dop-|po la pre- da|del- la bel- va-|
 G4 F4 | z2 E3 E E2 | F2 F2 A2 c2 | FGAB c3 B | A4 z2 A2 | A2 A2 B2 B2- | B2 B2 B4 | G6 F2 | %39
w: ri- a,|l'a- ria gio-|ir, l'a- ria gio-|ir, _ _ _ _ _|_ l'a-|ria gio- ir di|_ ce- le-|ste'ar- mo-|
 E4 F4- | F2 ED E4 | F4 z2 G2- | G2 G2 G4 | G2 c2 =B4 | c2 G2 A2 G2 | A2 G2 z2 E2 | F2 E2 F2 E2 | %47
w: ni- *||a, ahi|_ che piu|non si sen-|ten dop- po la|pre- da, dop-|po la pre- da|
 F3 F GD F2- | F2 E2 F4 | z2 G3 G G2 | A4 z2 F2 | A2 c2 FGAB | c3 B A2 c2 | c2 c2 d2 d2- | %54
w: del- la bel- va- ri-|* * a,|l'a- ria gio-|ir, l'a-|ria gio- ir, _ _ _|_ _ _ l'a-|ria gio- ir di|
 d2 d2 d4 | c4 =B4 | c6 BA | G8 | A8 |] %59
w: _ ce- le-|ste'ar- mo-|ni- * *||a.|
V:3
 z2 c2 B2 A2 | G2 F2 G2 A2 | z8 | z4 z2 F2 | G2 A2 B2 c2 | B2 A2 G2 F2 | G8 | C8 | F2 G2 A2 AA | %9
w: Scher- za- van|gl'au- gel- let- ti,||fra'i|ra- mi vez- zo-|set- ti, vez- zo-|set-|ti,|e can- ta- va- no'a-|
 F4 C4 | F2 G2 A2 AA | F4 C4 | F2 G2 A2 AA | B4 F4 | G4 G4 | A8- | A8 | D8 | d8 | A8 | B8 | A8 | %22
w: ga- ra,|e can- ta- va- no'a-|ga- ra,|e can- ta- va- no'a-|ga- ra,|dol- ce-|men-||te,|dol-|ce-|men-|te,|
 z2 d4 d2 | A4 c2 d2 | c4 F2 c2- | c2 =B2 c4 | c2 c2 d4 | c8- | c8- | c8 | z8 | z8 | z2 c3 c c2 | %33
w: ahi che|piu non si|sen- te, ahi|_ che piun|non si sen-|te,|_||||l'a- ria gio-|
 F8 | z2 F2 A2 c2 | FGAB c2 F2 | F2 F2 B2 B2- | B2 B2 B4 | c4 d4 | A2 G2 A2 B2 | c8 | F4 z2 c2- | %42
w: ir,|l'a- ria gio-|ir, _ _ _ _ l'a-|ria gio- ir di|_ de- le-|ste'ar- mo-|ni- * * *||a, ahi|
 c2 =B2 c4 | c2 c2 d4 | c8- | c8- | c8 | z8 | z8 | z2 c3 c c2 | F8 | z2 F2 A2 c2 | FGAB c2 F2 | %53
w: _ che piu|non si sen-|te,|_||||l'a- ria gio-|ir,|l'a- ria gio-|ir, _ _ _ _ l'a-|
 F2 F2 B2 B2- | B2 B2 B4 | c4 d4 | A2 G2 A2 B2 | c8 | F8 |] %59
w: ria gio- ir di|_ ce- le-|ste'ar- mo-|ni- * * *||a.|

